X: 9840
T: Denny Mescall's
R: slide
M: 12/8
K: Gmajor
|:A|B2B BAB dBA G2D|GDG g2e dBG A2G|
B2B BAB dBA G2D|Bdd B2A G3G2:|
|:d|~g3 gfe dcB c2d|eaa a2b a2g e2f|
~g3 gfe dcB c2d|efg faf ~g3 g2:|

